64x64/apps/buho.svg

<svg height="64" width="64" xmlns="http://www.w3.org/2000/svg"><rect height="56" opacity=".2" rx="2.778" ry="2.8" width="50" x="7" y="5"/><rect fill="#4f4f4f" height="56" rx="2.778" ry="2.8" width="50" x="7" y="4"/><path d="m11 48v7.79c0 .67.493 1.21 1.105 1.21h39.79c.612 0 1.105-.54 1.105-1.21v-7.79h-40.895z" opacity=".2"/><path d="m12.105 8c-.612 0-1.105.51-1.105 1.143v10.857h42v-10.857c0-.633-.493-1.143-1.105-1.143h-33.158z" fill="#68c7ff"/><path d="m11 20v9h42v-9h-34.263z" fill="#ab70ff"/><path d="m11 29v9h42v-9h-34.263z" fill="#ff639c"/><path d="m11 38v9h42v-9h-34.263z" fill="#ffdb49"/><path d="m11 47v7.79c0 .67.493 1.21 1.105 1.21h39.79c.612 0 1.105-.54 1.105-1.21v-7.79h-40.895z" fill="#c9c9c9"/><path d="m11 20h42v1h-42zm0 9h42v1h-42zm0 9h42v1h-42zm0 9h42v1h-42z" opacity=".1"/><g fill="#f4f4f7"><path d="m12.105 8c-.612 0-1.105.51-1.105 1.143v1c0-.634.493-1.143 1.105-1.143h39.789c.614 0 1.106.51 1.106 1.143v-1c0-.634-.493-1.143-1.105-1.143h-39.789z" opacity=".2"/><path d="m9.777 4a2.783 2.783 0 0 0 -2.777 2.8v1c0-1.55 1.238-2.8 2.777-2.8h44.446a2.783 2.783 0 0 1 2.777 2.8v-1c0-1.55-1.238-2.8-2.777-2.8z" opacity=".1"/></g></svg>

<svg xmlns="http://www.w3.org/2000/svg" width="64" height="64" version="1"><rect style="opacity:.2" width="50" height="56" x="7" y="5" rx="2.778" ry="2.8"/><rect style="fill:#4f4f4f" width="50" height="56" x="7" y="4" rx="2.778" ry="2.8"/><path style="opacity:.2" d="M11 48v7.79c0 .67.493 1.21 1.105 1.21h39.79c.612 0 1.105-.54 1.105-1.21V48H12.105z"/><path style="fill:#68c7ff" d="M12.105 8C11.493 8 11 8.51 11 9.143V20h42V9.143C53 8.51 52.507 8 51.895 8H18.737z"/><path style="fill:#ab70ff" d="M11 20v9h42v-9H18.737z"/><path style="fill:#ff639c" d="M11 29v9h42v-9H18.737z"/><path style="fill:#ffdb49" d="M11 38v9h42v-9H18.737z"/><path style="fill:#c9c9c9" d="M11 47v7.79c0 .67.493 1.21 1.105 1.21h39.79c.612 0 1.105-.54 1.105-1.21V47H12.105z"/><path style="opacity:.1" d="M11 20h42v1H11zM11 29h42v1H11zM11 38h42v1H11zM11 47h42v1H11z"/><path style="opacity:.2;fill:#f4f4f7" d="M12.105 8C11.493 8 11 8.51 11 9.143v1C11 9.509 11.493 9 12.105 9h39.789C52.508 9 53 9.51 53 10.143v-1C53 8.509 52.507 8 51.895 8H12.106z"/><path style="opacity:.1;fill:#f4f4f7" d="M9.777 4A2.783 2.783 0 0 0 7 6.8v1C7 6.25 8.238 5 9.777 5h44.446A2.783 2.783 0 0 1 57 7.8v-1C57 5.25 55.762 4 54.223 4H9.777z"/></svg>
